images/cloud-5.svg

<svg height="85" viewBox="0 0 341 85" width="341" xmlns="http://www.w3.org/2000/svg" xmlns:xlink="http://www.w3.org/1999/xlink"><linearGradient id="a" x1="50.001839%" x2="50.001839%" y1="0%" y2="99.988914%"><stop offset="0" stop-color="#fff"/><stop offset=".9" stop-color="#cbe9ff"/></linearGradient><path d="m288.916368 41.6833567c-.561557-12.9343729-14.44676-23.2900377-31.506799-23.2900377-4.808346-.0184548-9.579709.8415863-14.079708 2.537876-13.355017-12.43496412-40.297204-20.931195-71.355384-20.931195-25.025364 0-47.371568 5.51548297-62.116361 14.1624788-4.013566-1.127462-8.163757-1.6929677-12.3322932-1.6804006-17.0129809 0-30.8040677 8.9893578-30.8040677 20.0800015.0019278 1.0160796.1187477 2.0286743.348228 3.0184391-18.1957015 2.6006947-32.4761899 8.8166063-38.0886227 16.6469588-16.965923 1.7557831-28.9813604 6.1091198-28.9813604 11.2005765 0 6.0714286 17.0819991 11.0906437 39.299578 11.9355554 10.9456556 5.8672677 27.8645208 9.6363905 46.8696173 9.6363905 21.0599557 0 39.5631017-4.6265982 50.1950387-11.6214618 10.729189 2.5598625 22.813645 4.001552 35.597694 4.001552 16.730634 0 32.265998-2.4656345 45.128477-6.6839111 11.463292 5.8892543 32.940494 9.856256 57.5392 9.856256 36.654927 0 66.370395-8.7946197 66.370395-19.662257.012543-9.4071022-22.28974-17.272005-52.083632-19.2068214z" fill="url(#a)" opacity=".4"/></svg>

<?xml version="1.0" encoding="UTF-8"?>
<svg width="341px" height="85px" viewBox="0 0 341 85" version="1.1" xmlns="http://www.w3.org/2000/svg" xmlns:xlink="http://www.w3.org/1999/xlink">
    <!-- Generator: Sketch 59.1 (86144) - https://sketch.com -->
    <title>Asset 3</title>
    <desc>Created with Sketch.</desc>
    <defs>
        <linearGradient x1="50.0018392%" y1="0%" x2="50.0018392%" y2="99.9889143%" id="linearGradient-1">
            <stop stop-color="#FFFFFF" offset="0%"></stop>
            <stop stop-color="#CBE9FF" offset="90%"></stop>
        </linearGradient>
    </defs>
    <g id="Page-1" stroke="none" stroke-width="1" fill="none" fill-rule="evenodd" opacity="0.5">
        <g id="M&amp;M-Under-Construction-LP:-Desktop-Copy" transform="translate(-152.000000, -301.000000)" fill="url(#linearGradient-1)" fill-rule="nonzero">
            <g id="Asset-3" transform="translate(152.000000, 301.000000)">
                <path d="M288.916368,41.6833567 C288.354811,28.7489838 274.469608,18.393319 257.409569,18.393319 C252.601223,18.3748642 247.82986,19.2349053 243.329861,20.931195 C229.974844,8.49623088 203.032657,0 171.974477,0 C146.949113,0 124.602909,5.51548297 109.858116,14.1624788 C105.84455,13.0350168 101.694359,12.4695111 97.5258228,12.4820782 C80.5128419,12.4820782 66.7217551,21.471436 66.7217551,32.5620797 C66.7236829,33.5781593 66.8405028,34.590754 67.0699831,35.5805188 C48.8742816,38.1812135 34.5937932,44.3971251 28.9813604,52.2274776 C12.0154374,53.9832607 0,58.3365974 0,63.4280541 C0,69.4994827 17.0819991,74.5186978 39.299578,75.3636095 C50.2452336,81.2308772 67.1640988,85 86.1691953,85 C107.229151,85 125.732297,80.3734018 136.364234,73.3785382 C147.093423,75.9384007 159.177879,77.3800902 171.961928,77.3800902 C188.692562,77.3800902 204.227926,74.9144557 217.090405,70.6961791 C228.553697,76.5854334 250.030899,80.5524351 274.629605,80.5524351 C311.284532,80.5524351 341,71.7578154 341,60.8901781 C341.012543,51.4830759 318.71026,43.6181731 288.916368,41.6833567 Z" id="Path" opacity="0.8"></path>
            </g>
        </g>
    </g>
</svg>
